X: 12351
T: The Mucking of Geordys Byre
%R: air, waltz + slip-jig
B: James Oswald "The Caledonian Pocket Companion" v.1 b.1 p.35
Z: 2020 John Chambers <jc:trillian.mit.edu>
M: 3/4
L: 1/8
K: Bm
%%slurgraces 1
%%graceslurs 1
"_Slow"Tf>e |\
{e}d2 B2 B>d | TB4 A2 | B2 d2 e2 | Tf3 e d2 |\
e3 (e {de}f2) | A4 (Tf>e) | {e}d2 B2 (B>d) | TB4 A2 |\
"^+"B2 d2 e2 | "^+"f2 (gf)(ed) | {f}Te3 d (d/e/)f | B4 :|
|: g2 |\
(fg) a2 g2 | Tf3 e (f/e/d/e/) | d4 e2 | (fg) a2 (gf) |\
{f2}e4 d2 | A4 fg | "^+"a2 ba(Tgf) | g2 {fg}agTf>e |\
Tf2 ef d2 | A2 g2 f2 | e3 d (d/e/)f | B4 a2 |
b2 a2 f2 | a2 (f>a)(e>a) | {g}f3 e d2 | (e2 f2) a2 |\
{f2}Te4 d2 | A3 afa | b2 B2 Bd | TB4 A2 |\
B2 b2 a2 | f2 (gf)(ed) | Te3 d {de}f2 | B4 :|
M: 9/8
|: "_Brisk"(f/e/) |\
(dB)B TB2A (Bd)e | (fe)d (de)f A2f |\
(dB)B B2A (Bd)e | fed Te2d B2 :|
|: f/g/ |\
(ag)f g(a/g/f/e/) (fe)d | a(b/a/g/f/) Te2d A2(f/g/) |\
a(b/a/g/f/) g(a/g/f/e/) f(g/f/e/d/) |
abd Te2d B2a |\
(ba)f (af)e Tf>ed | (ef)a Te2d A2d |\
B3 TB2A (Bb)a | fed Te2d B2 :|


